X:3
T:Mist on the the the The The The The
R:jig
D:Mig an Mant the The The The
R:jig
D:M


*****************************


12600 0 1.866903 

<starions
D2A B2d|edB A2B|cAB A2B|cAB A2B|cAB A2B|cBA A2B|ABA A2B|cAB A2B|cAB cAB|cAB cAB|cAB A2B|cAB cAB


*****************************


12700 0 1.5083017 

<starions
|: BAG GFD | EFD DFD | EFD D2 :|
|: Bcd edc | dcd edc | dcd cAG | AGF G2A | BAG G2A | BAG GFD |


*****************************


12800 0 1.4171054 

<starions
|: BAG AFD | EFD EFD | EFD EFD | EFD EFD | EFD DFD | EFD DFD | EFD EFD | EFD DFD | EFD EFD | EF


*****************************


12900 0 1.764278 

<starions
|: ~D3 DFD | ~D3 DFD | ~D3 DFD | ~D3 DFD | ~D3 DFA | ~F3 DFD | ~D3 DFD | ~D3 DFD | ~D3 DFD | ~D


*****************************


13000 0 2.5899096 

<starions
|: ABA AFA | dBA A2A | dBA A2A | dBA A2A | dBA A2A | dBA A2A | dBA A2e | dBA A2A | dBA A2A | dB


*****************************


13100 0 1.6967142 

<starion (36-17
T:See Sallin Stee Sige Stale Stad in Ste Sead Stee Sollin Sin Sige
R:jig
D:See Sallin Sin


*****************************


13200 0 1.2352321 

<starions
|: AFD D2e | ~f3 edB | AFD D2e | ~g3 fdd | edB AFD | ~F3 AFD | ~D3 D2e | ~B3 AFD | ~D3 D2e | ~g


*****************************


13300 0 1.7717115 

<starions
|: GEE E2A:|2 GEE E2A:|2 GEE D2A||
|:~f3 edB|~A3 BAG|~G3 GEE|~E3 E3:|
|:~f3 edB|~A3 edB|def gfe


*****************************


13400 0 1.386311 

<starions
|: GAG G2A:|
|: fed edB|BAG G2A|BAG FAG|GBd edB|BAG GBd|edB BAG|Bcd edB|BAG GBd|edB ABc|def gfe


*****************************


13500 0 1.4320244 

<startion Alart March
Z:id:hn-jarch-2
M:6/8
K:D
AB ABc|dBA A2A|BAG A2A|BAG A2A|BAG A2A|B2A A2A|B2A A2A|B2


*****************************


13600 0 1.6191179 

<startion (3/8
K:D
DE A2:|
|:ed ef|ed e2|e2 e2|e2 e2|e2 e2|e2 e2|e2 e2|e2 e2|e2 e2|e2 e2|e2 e2|ed e2|ed e


*****************************


13700 0 2.657332 

<start>
